ir/input-field.svg

<svg stroke-width="1.5" viewBox="0 0 24 24" fill="none" xmlns="http://www.w3.org/2000/svg" height="1em" width="1em">
  <path d="M4 6H20C21.1046 6 22 6.89543 22 8V16C22 17.1046 21.1046 18 20 18H4C2.89543 18 2 17.1046 2 16V8C2 6.89543 2.89543 6 4 6Z" stroke="currentColor" stroke-linecap="round" stroke-linejoin="round"/>
  <path d="M5 8.5H6.5M8 8.5H6.5M6.5 8.5V15.5M6.5 15.5H5M6.5 15.5H8" stroke="currentColor" stroke-linecap="round" stroke-linejoin="round"/>
</svg>

<svg stroke-width="1.5" viewBox="0 0 24 24" fill="none" xmlns="http://www.w3.org/2000/svg" height="1em" width="1em">
  <path d="M4 6h16a2 2 0 0 1 2 2v8a2 2 0 0 1-2 2H4a2 2 0 0 1-2-2V8a2 2 0 0 1 2-2Zm1 2.5h1.5m1.5 0H6.5m0 0v7m0 0H5m1.5 0H8" stroke="currentColor" stroke-linecap="round" stroke-linejoin="round"/>
</svg>
